X:1
T:Title
%%score ( 1 2 ) ( 3 4 )
L:1/8
Q:1/4=108
M:4/4
K:Bb
V:1 treble nm="Grand Piano, Soprano"
V:2 treble 
V:3 bass nm="Choir Pad, Sharon (Wallhead), CM"
V:4 bass 
V:1
 [DF]2 [DF]2 [_D=E]2 [=DF]2 | [FB]2 [EG]2 [EB]2 [DB]2 | [DB]2 [EA]2 [DB]2 [Ec]2 | [DB]2 [CA]6 | %4
w: By~Thomas~Wallhead,~1877 * * *||||
 FE [B,D]2 [A,E]2 [B,F]2 | BAGA Bc [^Fd]2 | [Fd]2 [Ee]2 [EG]2 [EA]2 | [Ec]2 [DB]6- | [DB]2 z2 z4 |] %9
w: |||||
V:2
 x8 | x8 | x8 | x8 | C2 z2 z4 | F2 E2 G2 z2 | x8 | x8 | x8 |] %9
V:3
 [B,,F,]2 [B,,F,]2 [B,,G,]2 [B,,F,]2 | [D,F,]2 [E,B,]2 [G,B,]2 B,2 | %2
 [B,,F,]2 [C,F,]2 [B,,F,]2 [A,,F,]2 | F,-[D,F,] F,6 | [A,,F,]2 [B,,F,]2 [C,F,]2 [D,B,]2 | %5
 [D,B,]2 [E,B,]2 [E,G,]2 [D,A,]2 | [G,=B,]2 [C,C]2 [C,C]2 [F,C]2 | [F,A,]2 [B,,B,]6- | %8
 [B,,B,]2 z2 z4 |] %9
V:4
 x8 | x8 | x8 | .B,,2 z2 z4 | x8 | x8 | x8 | x8 | x8 |] %9

